icons/banking/icon_payment-to-state_m_black.svg

<svg width="24" height="24" viewBox="0 0 24 24" xmlns="http://www.w3.org/2000/svg"><g fill="none" fill-rule="evenodd"><path d="M0 0h24v24H0z"/><path d="M18 10h4v12h2v1H0v-1h2V10h4V6h12v4zM3 22h18V11H3v11zm4-12h10V7H7v3z" fill="#0B1F35" fill-rule="nonzero"/><path d="M6 14h2v8H6v-8zm5 0h2v8h-2v-8zm5 0h2v8h-2v-8zM12 0h-1v6h1V3.333L17 4V.667L12 0z" fill="#0B1F35" fill-rule="nonzero" opacity=".3"/></g></svg>

<?xml version="1.0" encoding="UTF-8"?>
<svg width="24px" height="24px" viewBox="0 0 24 24" version="1.1" xmlns="http://www.w3.org/2000/svg" xmlns:xlink="http://www.w3.org/1999/xlink">
    <!-- Generator: Sketch 48.2 (47327) - http://www.bohemiancoding.com/sketch -->
    <title>icon_payment-to-state_m_black</title>
    <desc>Created with Sketch.</desc>
    <defs></defs>
    <g id="Page-1" stroke="none" stroke-width="1" fill="none" fill-rule="evenodd">
        <g id="icon_payment-to-state_m_black">
            <polygon id="Shape" points="0 0 24 0 24 24 0 24"></polygon>
            <path d="M18,10 L22,10 L22,22 L24,22 L24,23 L0,23 L0,22 L2,22 L2,10 L6,10 L6,6 L18,6 L18,10 Z M3,22 L21,22 L21,11 L3,11 L3,22 Z M7,10 L17,10 L17,7 L7,7 L7,10 Z" id="Shape" fill="#0B1F35" fill-rule="nonzero"></path>
            <path d="M6,14 L8,14 L8,22 L6,22 L6,14 Z M11,14 L13,14 L13,22 L11,22 L11,14 Z M16,14 L18,14 L18,22 L16,22 L16,14 Z M12,0 L11,0 L11,6 L12,6 L12,3.333 L17,4 L17,0.667 L12,0 Z" id="Shape" fill="#0B1F35" fill-rule="nonzero" opacity="0.3"></path>
        </g>
    </g>
</svg>
